images/bootstrap.svg

<svg width="80" height="80" viewBox="0 0 80 80" fill="none" xmlns="http://www.w3.org/2000/svg">
<path d="M72.1429 41.0953C70.6826 50.381 67.8413 53.0953 62.8096 59.3334C57.7778 64.6191 50.5397 73.4445 40.2858 72.9524C31.0001 71.4921 28.2858 68.6508 22.0477 63.6191C16.762 58.5873 7.93657 51.3492 8.42864 41.0953C9.88896 31.8095 12.7302 29.0953 17.762 22.8572C22.7937 17.5715 30.0318 8.74605 40.2858 9.23812C49.5715 10.6984 52.2858 13.5397 58.5239 18.5715C63.8096 23.6191 72.6191 30.8413 72.1429 41.0953Z" fill="#3765AF"/>
<path d="M52.7938 27.9999C53.8731 29.492 54.3969 31.2856 54.3969 33.365C54.3969 35.5079 53.8573 37.238 52.7779 38.5396C52.1747 39.2698 51.2858 39.9364 50.0954 40.5396C51.889 41.1904 53.2382 42.2222 54.1588 43.6349C55.0636 45.0476 55.5239 46.7618 55.5239 48.7777C55.5239 50.8571 55.0001 52.7301 53.9684 54.3809C53.3017 55.4761 52.4763 56.3968 51.4763 57.1428C50.3493 57.9999 49.0319 58.5872 47.5081 58.9047C45.9842 59.2222 44.3335 59.3809 42.5398 59.3809H26.7144V24.2698H43.6827C47.9684 24.3333 51.0001 25.5714 52.7938 27.9999ZM33.7144 30.365V38.111H42.2541C43.7779 38.111 45.016 37.8253 45.9684 37.238C46.9208 36.6507 47.3969 35.6349 47.3969 34.1587C47.3969 32.5237 46.762 31.4444 45.5081 30.9206C44.4287 30.5555 43.0319 30.365 41.3652 30.365H33.7144ZM33.7144 43.9206V53.2857H42.2382C43.762 53.2857 44.9525 53.0793 45.7938 52.6666C47.3335 51.9047 48.0954 50.4444 48.0954 48.2857C48.0954 46.4603 47.3493 45.2063 45.8573 44.5237C45.0319 44.1428 43.8573 43.9364 42.3493 43.9206H33.7144Z" fill="white"/>
</svg>

<svg width="80" height="80" viewBox="0 0 80 80" fill="none" xmlns="http://www.w3.org/2000/svg"><path d="M72.143 41.095c-1.46 9.286-4.302 12-9.333 18.238-5.032 5.286-12.27 14.112-22.524 13.62-9.286-1.46-12-4.302-18.238-9.334-5.286-5.032-14.111-12.27-13.62-22.524 1.461-9.285 4.302-12 9.334-18.238 5.032-5.285 12.27-14.11 22.524-13.619 9.285 1.46 12 4.302 18.238 9.334 5.286 5.047 14.095 12.27 13.619 22.523z" fill="#3765AF"/><path d="M52.794 28c1.08 1.492 1.603 3.286 1.603 5.365 0 2.143-.54 3.873-1.62 5.175-.602.73-1.491 1.396-2.682 2 1.794.65 3.143 1.682 4.064 3.095.905 1.413 1.365 3.127 1.365 5.143 0 2.08-.524 3.952-1.556 5.603a9.672 9.672 0 01-2.492 2.762c-1.127.857-2.444 1.444-3.968 1.762-1.524.317-3.175.476-4.968.476H26.714V24.27h16.969c4.285.063 7.317 1.301 9.11 3.73zm-19.08 2.365v7.746h8.54c1.524 0 2.762-.286 3.714-.873.953-.587 1.429-1.603 1.429-3.08 0-1.634-.635-2.714-1.889-3.237-1.08-.366-2.476-.556-4.143-.556h-7.65zm0 13.556v9.365h8.524c1.524 0 2.715-.207 3.556-.62 1.54-.761 2.301-2.222 2.301-4.38 0-1.826-.746-3.08-2.238-3.762-.825-.381-2-.588-3.508-.603h-8.635z" fill="#fff"/></svg>
